; generated by CreatWare 7.0.2 on 2024-01-05 at 16:11:21 UTC

; 

; external perimeters extrusion width = 0.40mm
; perimeters extrusion width = 0.40mm
; infill extrusion width = 0.40mm
; solid infill extrusion width = 0.40mm
; top infill extrusion width = 0.40mm

G21 ; set units to millimeters
G90 ; use absolute coordinates
M82 ; use absolute distances for extrusion
G92 E0
M107
M190 S45 ; set bed temperature and wait for it to be reached
M104 S210 T1 ; set temperature
;TYPE:Custom
M109 S210 T1 ; set temperature and wait for it to be reached
G28 X0 Y0                ;move X/Y to min endstops
G28 Z0                   ;move Z to min endstops

;Add Clear Nozzle
G92 E0                   ;zero the extruded length
M83                      ;set E value is relative 
G0 F4200 X0 Y0 

 
T1 F400                  ;activate extruder NO.1 
G0 X40 Y0 Z0.4           ;move a bit while down the Z 
M221 T1 S200             ;set flow is 200% 
G1 F200 X60 E+8          ;extrude amont filament to clean the hotend 
M221 T1 S100             ;reset flow is 100% 
 
 
M82                      ;set E value is absolute
G92 E0                   ;zero the extruded length again

;Add End
G0 Z15.0 F4200           ;move the platform down 15mm
;Put printing message on LCD screen
M117 Printing...
T1
G92 E0
; Filament gcode
M107
;LAYER_CHANGE
;Layer 1
;Z:0.25
;HEIGHT:0.25
;BEFORE_LAYER_CHANGE
;0.25


G1 Z.25 F4200
;AFTER_LAYER_CHANGE
;G92 E0   ;zero the extruded length again
;0.25
G1 E-2 F1800
G92 E0
G1 X13.598 Y86.598 F4200
G1 E2 F1800
;TYPE:Skirt/Brim
;WIDTH:0.4
G1 F900
G1 X14.184 Y86.012 E2.03579
G1 X16.027 Y84.731 E2.13274
G1 X18.672 Y84.154 E2.24969
G1 X35.328 Y84.154 E2.96924
G1 X37.537 Y84.55 E3.06619
G1 X39.816 Y86.012 E3.18314
G1 X40.988 Y87.184 E3.25472
G1 X42.269 Y89.027 E3.35167
G1 X42.846 Y91.672 E3.46862
G1 X42.846 Y108.328 E4.18817
G1 X42.45 Y110.537 E4.28513
G1 X40.988 Y112.816 E4.40207
G1 X39.816 Y113.988 E4.47365
G1 X37.973 Y115.269 E4.5706
G1 X35.328 Y115.846 E4.68755
G1 X18.672 Y115.846 E5.4071
G1 X16.463 Y115.45 E5.50406
G1 X14.184 Y113.988 E5.62101
G1 X13.012 Y112.816 E5.69258
G1 X11.731 Y110.973 E5.78953
G1 X11.154 Y108.328 E5.90648
G1 X11.154 Y91.672 E6.62603
G1 X11.55 Y89.463 E6.72299
G1 X13.012 Y87.184 E6.83994
G1 X13.556 Y86.641 E6.87313
G1 E4.87313 F1800
G92 E0
G1 X18.355 Y91.44 F4200
G1 E2 F1800
G1 F900
G1 X18.585 Y91.211 E2.01402
G1 X18.723 Y91.112 E2.02135
G1 X19.223 Y90.941 E2.0442
G1 X34.798 Y90.945 E2.71698
G1 X35.016 Y90.996 E2.72669
G1 X35.31 Y91.134 E2.74073
G1 X35.787 Y91.583 E2.76898
G1 X35.929 Y91.804 E2.78035
G1 X36.059 Y92.222 E2.79927
G1 X36.059 Y107.778 E3.47124
G1 X35.929 Y108.196 E3.49017
G1 X35.788 Y108.416 E3.50146
G1 X35.415 Y108.789 E3.52424
G1 X35.277 Y108.888 E3.53157
G1 X34.777 Y109.059 E3.55443
G1 X19.222 Y109.059 E4.22635
G1 X18.804 Y108.929 E4.24528
G1 X18.584 Y108.788 E4.25657
G1 X18.211 Y108.415 E4.27935
G1 X18.112 Y108.277 E4.28668
G1 X17.941 Y107.777 E4.30953
G1 X17.941 Y92.222 E4.98145
G1 X18.071 Y91.804 E5.00038
G1 X18.212 Y91.584 E5.01167
G1 X18.313 Y91.483 E5.01784
G1 X18.558 Y91.728 F4200
G1 F900
G1 X18.819 Y91.467 E5.03376
G1 X18.901 Y91.409 E5.03812
G1 X19.253 Y91.288 E5.05419
G1 X34.777 Y91.291 E5.72483
G1 X34.885 Y91.316 E5.72959
G1 X35.136 Y91.435 E5.74158
G1 X35.532 Y91.818 E5.76537
G1 X35.608 Y91.935 E5.77144
G1 X35.712 Y92.251 E5.78581
G1 X35.712 Y107.749 E6.45527
G1 X35.608 Y108.065 E6.46965
G1 X35.531 Y108.184 E6.47578
G1 X35.181 Y108.533 E6.49712
G1 X35.099 Y108.591 E6.50148
G1 X34.747 Y108.712 E6.51755
G1 X19.251 Y108.712 E7.18695
G1 X18.935 Y108.608 E7.20133
G1 X18.816 Y108.531 E7.20745
G1 X18.467 Y108.181 E7.22879
G1 X18.409 Y108.099 E7.23316
G1 X18.288 Y107.747 E7.24922
G1 X18.288 Y92.251 E7.91862
G1 X18.392 Y91.935 E7.933
G1 X18.516 Y91.77 E7.94192
G1 X18.76 Y92.015 F4200
G1 F900
G1 X19.05 Y91.726 E7.9596
G1 X19.284 Y91.634 E7.97044
G1 X34.729 Y91.634 E8.63768
G1 X34.959 Y91.735 E8.64852
G1 X35.274 Y92.05 E8.66777
G1 X35.366 Y92.284 E8.67861
G1 X35.366 Y107.716 E9.34529
G1 X35.274 Y107.95 E9.35613
G1 X34.95 Y108.274 E9.37595
G1 X34.716 Y108.366 E9.38679
G1 X19.284 Y108.366 E10.05346
G1 X19.05 Y108.274 E10.0643
G1 X18.726 Y107.95 E10.08412
G1 X18.634 Y107.716 E10.09496
G1 X18.634 Y92.284 E10.76163
G1 X18.72 Y92.059 E10.77202
G1 X19.007 Y92.258 F4200
G1 F900
G1 X19.258 Y92.007 E10.78739
G1 X19.322 Y91.98 E10.79037
G1 X34.678 Y91.98 E11.45372
G1 X34.742 Y92.007 E11.4567
G1 X34.993 Y92.258 E11.47207
G1 X35.02 Y92.322 E11.47504
G1 X35.02 Y107.678 E12.13839
G1 X34.993 Y107.742 E12.14137
G1 X34.742 Y107.993 E12.15674
G1 X34.678 Y108.02 E12.15972
G1 X19.322 Y108.02 E12.82307
G1 X19.258 Y107.993 E12.82604
G1 X19.007 Y107.742 E12.84141
G1 X18.98 Y107.678 E12.84439
G1 X18.984 Y92.314 E13.50809
G1 X19.327 Y92.428 F4200
G1 F900
G1 X19.428 Y92.327 E13.51429
G1 X34.572 Y92.327 E14.16847
G1 X34.673 Y92.428 E14.17467
G1 X34.673 Y107.572 E14.82884
G1 X34.572 Y107.673 E14.83504
G1 X19.428 Y107.673 E15.48922
G1 X19.327 Y107.572 E15.49541
G1 X19.327 Y92.488 E16.147
G1 X19.7 Y92.7 F4200
;TYPE:External perimeter
G1 F630
G1 X34.3 Y92.7 E16.7777
G1 X34.3 Y107.3 E17.4084
G1 X19.7 Y107.3 E18.0391
G1 X19.7 Y92.76 E18.66721
G1 X20.086 Y92.804 F4200
G1 X20.046 Y93.046
;TYPE:Inner perimeter
G1 F900
G1 X33.954 Y93.046 E19.26798
G1 X33.954 Y106.954 E19.86876
G1 X20.046 Y106.954 E20.46954
G1 X20.046 Y93.106 E21.06772
G1 E19.06772 F1800
G92 E0
G1 X23.3 Y96.3 F4200
G1 E2 F1800
;TYPE:External perimeter
G1 F270
G1 X30.7 Y96.3 E2.31967
G1 X30.7 Y103.7 E2.63934
G1 X23.3 Y103.7 E2.95901
G1 X23.3 Y96.36 E3.27609
G1 X23.196 Y95.914 F4200
G1 X22.954 Y95.954
;TYPE:Inner perimeter
G1 F270
G1 X31.046 Y95.954 E3.62568
G1 X31.046 Y104.046 E3.97527
G1 X22.954 Y104.046 E4.32487
G1 X22.954 Y96.014 E4.67187
G1 E2.67187 F1800
G92 E0
G1 X33.149 Y93.15 F4200
G1 E2 F1800
;TYPE:Solid infill
;WIDTH:0.400489
G1 F720
G1 X33.694 Y93.696 E2.03336
G1 X33.694 Y94.186 E2.05458
G1 X32.814 Y93.306 E2.10842
G1 X32.323 Y93.306 E2.12964
G1 X33.694 Y94.677 E2.21348
G1 X33.694 Y95.167 E2.2347
G1 X31.833 Y93.306 E2.34855
G1 X31.342 Y93.306 E2.36977
G1 X33.694 Y95.658 E2.51363
G1 X33.694 Y96.148 E2.53485
G1 X30.852 Y93.306 E2.70872
G1 X30.361 Y93.306 E2.72994
G1 X33.694 Y96.639 E2.93382
G1 X33.694 Y97.129 E2.95504
G1 X29.871 Y93.306 E3.18892
G1 X29.38 Y93.306 E3.21014
G1 X33.694 Y97.62 E3.47403
G1 X33.694 Y98.11 E3.49525
G1 X28.89 Y93.306 E3.78916
G1 X28.399 Y93.306 E3.81037
G1 X30.787 Y95.694 E3.95646
G1 X30.297 Y95.694 E3.97768
G1 X27.909 Y93.306 E4.12376
G1 X27.418 Y93.306 E4.14498
G1 X29.806 Y95.694 E4.29106
G1 X29.316 Y95.694 E4.31228
G1 X26.928 Y93.306 E4.45836
G1 X26.437 Y93.306 E4.47958
G1 X28.825 Y95.694 E4.62566
G1 X28.335 Y95.694 E4.64688
G1 X25.947 Y93.306 E4.79296
G1 X25.456 Y93.306 E4.81418
G1 X27.844 Y95.694 E4.96026
G1 X27.354 Y95.694 E4.98148
G1 X24.966 Y93.306 E5.12756
G1 X24.475 Y93.306 E5.14878
G1 X26.863 Y95.694 E5.29486
G1 X26.373 Y95.694 E5.31608
G1 X23.985 Y93.306 E5.46216
G1 X23.494 Y93.306 E5.48338
G1 X25.882 Y95.694 E5.62946
G1 X25.392 Y95.694 E5.65068
G1 X23.004 Y93.306 E5.79677
G1 X22.513 Y93.306 E5.81798
G1 X24.901 Y95.694 E5.96407
G1 X24.411 Y95.694 E5.98529
G1 X22.023 Y93.306 E6.13137
G1 X21.532 Y93.306 E6.15259
G1 X23.92 Y95.694 E6.29867
G1 X23.43 Y95.694 E6.31989
G1 X21.042 Y93.306 E6.46597
G1 X20.551 Y93.306 E6.48719
G1 X22.939 Y95.694 E6.63327
G1 X22.694 Y95.694 E6.64388
G1 X22.694 Y95.939 E6.65449
G1 X20.306 Y93.551 E6.80057
G1 X20.306 Y94.042 E6.82179
G1 X22.694 Y96.43 E6.96787
G1 X22.694 Y96.92 E6.98909
G1 X20.306 Y94.532 E7.13517
G1 X20.306 Y95.023 E7.15639
G1 X22.694 Y97.411 E7.30247
G1 X22.694 Y97.901 E7.32369
G1 X20.306 Y95.513 E7.46977
G1 X20.306 Y96.004 E7.49099
G1 X22.694 Y98.392 E7.63707
G1 X22.694 Y98.882 E7.65829
G1 X20.306 Y96.494 E7.80438
G1 X20.306 Y96.985 E7.82559
G1 X22.694 Y99.373 E7.97168
G1 X22.694 Y99.863 E7.9929
G1 X20.306 Y97.475 E8.13898
G1 X20.306 Y97.966 E8.1602
G1 X22.694 Y100.354 E8.30628
G1 X22.694 Y100.844 E8.3275
G1 X20.306 Y98.456 E8.47358
G1 X20.306 Y98.947 E8.4948
G1 X22.694 Y101.335 E8.64088
G1 X22.694 Y101.825 E8.6621
G1 X20.306 Y99.437 E8.80818
G1 X20.306 Y99.928 E8.8294
G1 X22.694 Y102.316 E8.97548
G1 X22.694 Y102.806 E8.9967
G1 X20.306 Y100.418 E9.14278
G1 X20.306 Y100.909 E9.164
G1 X22.694 Y103.297 E9.31008
G1 X22.694 Y103.787 E9.3313
G1 X20.15 Y101.244 E9.48692
G1 E7.48692 F1800
G92 E0
G1 X20.02 Y101.244 F4200
G1 X22.98 Y95.98
G1 X31.02 Y95.98
G1 X31.02 Y96.057
G1 X31.15 Y96.057
G1 E2 F1800
G1 F720
G1 X33.694 Y98.601 E2.15562
G1 X33.694 Y99.091 E2.17684
G1 X31.306 Y96.703 E2.32292
G1 X31.306 Y97.194 E2.34414
G1 X33.694 Y99.582 E2.49022
G1 X33.694 Y100.072 E2.51144
G1 X31.306 Y97.684 E2.65752
G1 X31.306 Y98.175 E2.67874
G1 X33.694 Y100.563 E2.82482
G1 X33.694 Y101.053 E2.84604
G1 X31.306 Y98.665 E2.99212
G1 X31.306 Y99.156 E3.01334
G1 X33.694 Y101.544 E3.15942
G1 X33.694 Y102.034 E3.18064
G1 X31.306 Y99.646 E3.32672
G1 X31.306 Y100.137 E3.34794
G1 X33.694 Y102.525 E3.49402
G1 X33.694 Y103.015 E3.51524
G1 X31.306 Y100.627 E3.66132
G1 X31.306 Y101.118 E3.68254
G1 X33.694 Y103.506 E3.82863
G1 X33.694 Y103.996 E3.84984
G1 X31.306 Y101.608 E3.99593
G1 X31.306 Y102.099 E4.01714
G1 X33.694 Y104.487 E4.16323
G1 X33.694 Y104.977 E4.18445
G1 X31.306 Y102.589 E4.33053
G1 X31.306 Y103.08 E4.35175
G1 X33.694 Y105.468 E4.49783
G1 X33.694 Y105.958 E4.51905
G1 X31.306 Y103.57 E4.66513
G1 X31.306 Y104.061 E4.68635
G1 X33.694 Y106.449 E4.83243
G1 X33.694 Y106.694 E4.84304
G1 X33.449 Y106.694 E4.85365
G1 X31.061 Y104.306 E4.99973
G1 X30.57 Y104.306 E5.02095
G1 X32.958 Y106.694 E5.16703
G1 X32.468 Y106.694 E5.18825
G1 X30.08 Y104.306 E5.33433
G1 X29.589 Y104.306 E5.35555
G1 X31.977 Y106.694 E5.50163
G1 X31.487 Y106.694 E5.52285
G1 X29.099 Y104.306 E5.66893
G1 X28.608 Y104.306 E5.69015
G1 X30.996 Y106.694 E5.83623
G1 X30.506 Y106.694 E5.85745
G1 X28.118 Y104.306 E6.00354
G1 X27.627 Y104.306 E6.02475
G1 X30.015 Y106.694 E6.17084
G1 X29.525 Y106.694 E6.19206
G1 X27.137 Y104.306 E6.33814
G1 X26.646 Y104.306 E6.35936
G1 X29.034 Y106.694 E6.50544
G1 X28.544 Y106.694 E6.52666
G1 X26.156 Y104.306 E6.67274
G1 X25.665 Y104.306 E6.69396
G1 X28.053 Y106.694 E6.84004
G1 X27.563 Y106.694 E6.86126
G1 X25.175 Y104.306 E7.00734
G1 X24.684 Y104.306 E7.02856
G1 X27.072 Y106.694 E7.17464
G1 X26.582 Y106.694 E7.19586
G1 X24.194 Y104.306 E7.34194
G1 X23.703 Y104.306 E7.36316
G1 X26.091 Y106.694 E7.50924
G1 X25.601 Y106.694 E7.53046
G1 X23.057 Y104.15 E7.68608
G1 E5.68608 F1800
G92 E0
G1 X25.266 Y106.85 F4200
G1 E2 F1800
G1 F720
G1 X20.306 Y101.89 E2.30343
G1 X20.306 Y102.38 E2.32465
G1 X24.62 Y106.694 E2.58854
G1 X24.129 Y106.694 E2.60976
G1 X20.306 Y102.871 E2.84364
G1 X20.306 Y103.361 E2.86486
G1 X23.639 Y106.694 E3.06873
G1 X23.148 Y106.694 E3.08995
G1 X20.306 Y103.852 E3.26381
G1 X20.306 Y104.342 E3.28503
G1 X22.658 Y106.694 E3.42889
G1 X22.167 Y106.694 E3.45011
G1 X20.306 Y104.833 E3.56396
G1 X20.306 Y105.323 E3.58518
G1 X21.677 Y106.694 E3.66901
G1 X21.186 Y106.694 E3.69023
G1 X20.306 Y105.814 E3.74406
G1 X20.306 Y106.305 E3.76528
G1 X20.851 Y106.85 E3.79864
;LAYER_CHANGE
;Layer 2
;Z:0.45
;HEIGHT:0.2
;BEFORE_LAYER_CHANGE
;0.45


G1 Z.45 F4200
;AFTER_LAYER_CHANGE
;G92 E0   ;zero the extruded length again
;0.45
G1 E1.79864 F1800
G92 E0
G1 X22.943 Y95.943 F4200
G1 E2 F1800
;TYPE:Inner perimeter
;WIDTH:0.4
G1 F900
G1 X31.057 Y95.943 E2.24092
G1 X31.057 Y104.057 E2.48184
G1 X22.943 Y104.057 E2.72276
G1 X22.943 Y96.003 E2.9619
G1 X23.3 Y96.3 F4200
;TYPE:External perimeter
G1 F900
G1 X30.7 Y96.3 E3.18161
G1 X30.7 Y103.7 E3.40133
G1 X23.3 Y103.7 E3.62105
G1 X23.3 Y96.36 E3.83898
G1 X23.196 Y95.914 F4200
G1 E1.83898 F1800
G92 E0
G1 X20.057 Y93.057 F4200
G1 E2 F1800
;TYPE:Inner perimeter
G1 F3000
G1 X33.943 Y93.057 E2.41229
G1 X33.943 Y106.943 E2.82458
G1 X20.057 Y106.943 E3.23687
G1 X20.057 Y93.117 E3.64737
G1 X19.7 Y92.7 F4200
;TYPE:External perimeter
G1 F2100
G1 X34.3 Y92.7 E4.08087
G1 X34.3 Y107.3 E4.51436
G1 X19.7 Y107.3 E4.94785
G1 X19.7 Y92.76 E5.37956
G1 X20.086 Y92.804 F4200
G1 E3.37956 F1800
G92 E0
G1 X20.036 Y93.077 F4200
G1 X33.964 Y93.036
G1 X33.964 Y106.11
G1 X33.836 Y106.11
G1 E2 F1800
;TYPE:Solid infill
;WIDTH:0.401903
G1 F2400
G1 X33.271 Y106.675 E2.02386
G1 X32.763 Y106.675 E2.03901
G1 X33.675 Y105.763 E2.07752
G1 X33.675 Y105.255 E2.09267
G1 X32.255 Y106.675 E2.15261
G1 X31.748 Y106.675 E2.16777
G1 X33.675 Y104.748 E2.24913
G1 X33.675 Y104.24 E2.26429
G1 X31.24 Y106.675 E2.36709
G1 X30.732 Y106.675 E2.38224
G1 X33.675 Y103.732 E2.50647
G1 X33.675 Y103.225 E2.52163
G1 X30.225 Y106.675 E2.66729
G1 X29.717 Y106.675 E2.68244
G1 X33.675 Y102.717 E2.84953
G1 X33.675 Y102.209 E2.86469
G1 X29.209 Y106.675 E3.05321
G1 X28.702 Y106.675 E3.06837
G1 X33.675 Y101.702 E3.27832
G1 X33.675 Y101.194 E3.29348
G1 X31.325 Y103.544 E3.39269
G1 X31.325 Y103.036 E3.40784
G1 X33.675 Y100.686 E3.50705
G1 X33.675 Y100.178 E3.52221
G1 X31.325 Y102.529 E3.62142
G1 X31.325 Y102.021 E3.63657
G1 X33.675 Y99.671 E3.73579
G1 X33.675 Y99.163 E3.75094
G1 X31.325 Y101.513 E3.85015
G1 X31.325 Y101.006 E3.86531
G1 X33.675 Y98.655 E3.96452
G1 X33.675 Y98.148 E3.97967
G1 X31.325 Y100.498 E4.07889
G1 X31.325 Y99.99 E4.09404
G1 X33.675 Y97.64 E4.19325
G1 X33.675 Y97.132 E4.20841
G1 X31.325 Y99.483 E4.30762
G1 X31.325 Y98.975 E4.32277
G1 X33.675 Y96.625 E4.42198
G1 X33.675 Y96.117 E4.43714
G1 X31.325 Y98.467 E4.53635
G1 X31.325 Y97.96 E4.55151
G1 X33.675 Y95.609 E4.65072
G1 X33.675 Y95.102 E4.66587
G1 X31.325 Y97.452 E4.76508
G1 X31.325 Y96.944 E4.78024
G1 X33.675 Y94.594 E4.87945
G1 X33.675 Y94.086 E4.8946
G1 X31.325 Y96.437 E4.99382
G1 X31.325 Y95.929 E5.00897
G1 X33.675 Y93.579 E5.10818
G1 X33.675 Y93.325 E5.11576
G1 X33.421 Y93.325 E5.12334
G1 X31.071 Y95.675 E5.22255
G1 X30.563 Y95.675 E5.2377
G1 X32.914 Y93.325 E5.33692
G1 X32.406 Y93.325 E5.35207
G1 X30.056 Y95.675 E5.45128
G1 X29.548 Y95.675 E5.46644
G1 X31.898 Y93.325 E5.56565
G1 X31.391 Y93.325 E5.5808
G1 X29.04 Y95.675 E5.68002
G1 X28.533 Y95.675 E5.69517
G1 X30.883 Y93.325 E5.79438
G1 X30.375 Y93.325 E5.80954
G1 X28.025 Y95.675 E5.90875
G1 X27.517 Y95.675 E5.9239
G1 X29.867 Y93.325 E6.02311
G1 X29.36 Y93.325 E6.03827
G1 X27.01 Y95.675 E6.13748
G1 X26.502 Y95.675 E6.15263
G1 X28.852 Y93.325 E6.25185
G1 X28.344 Y93.325 E6.267
G1 X25.994 Y95.675 E6.36621
G1 X25.487 Y95.675 E6.38137
G1 X27.837 Y93.325 E6.48058
G1 X27.329 Y93.325 E6.49573
G1 X24.979 Y95.675 E6.59495
G1 X24.471 Y95.675 E6.6101
G1 X26.821 Y93.325 E6.70931
G1 X26.314 Y93.325 E6.72447
G1 X23.963 Y95.675 E6.82368
G1 X23.456 Y95.675 E6.83883
G1 X25.967 Y93.164 E6.94483
G1 E4.94483 F1800
G92 E0
G1 X25.967 Y93.036 F4200
G1 X31.036 Y95.964
G1 X31.036 Y104.036
G1 X30.705 Y104.036
G1 X30.705 Y104.164
G1 E2 F1800
G1 F2400
G1 X28.194 Y106.675 E2.106
G1 X27.686 Y106.675 E2.12115
G1 X30.036 Y104.325 E2.22036
G1 X29.529 Y104.325 E2.23552
G1 X27.178 Y106.675 E2.33473
G1 X26.671 Y106.675 E2.34988
G1 X29.021 Y104.325 E2.44909
G1 X28.513 Y104.325 E2.46425
G1 X26.163 Y106.675 E2.56346
G1 X25.655 Y106.675 E2.57862
G1 X28.006 Y104.325 E2.67783
G1 X27.498 Y104.325 E2.69298
G1 X25.148 Y106.675 E2.79219
G1 X24.64 Y106.675 E2.80735
G1 X26.99 Y104.325 E2.90656
G1 X26.483 Y104.325 E2.92171
G1 X24.132 Y106.675 E3.02093
G1 X23.625 Y106.675 E3.03608
G1 X25.975 Y104.325 E3.13529
G1 X25.467 Y104.325 E3.15045
G1 X23.117 Y106.675 E3.24966
G1 X22.609 Y106.675 E3.26481
G1 X24.96 Y104.325 E3.36403
G1 X24.452 Y104.325 E3.37918
G1 X22.102 Y106.675 E3.47839
G1 X21.594 Y106.675 E3.49355
G1 X23.944 Y104.325 E3.59276
G1 X23.437 Y104.325 E3.60791
G1 X21.086 Y106.675 E3.70713
G1 X20.579 Y106.675 E3.72228
G1 X22.929 Y104.325 E3.82149
G1 X22.675 Y104.325 E3.82907
G1 X22.675 Y104.071 E3.83665
G1 X20.325 Y106.421 E3.93586
G1 X20.325 Y105.914 E3.95101
G1 X22.675 Y103.563 E4.05022
G1 X22.675 Y103.056 E4.06538
G1 X20.325 Y105.406 E4.16459
G1 X20.325 Y104.898 E4.17974
G1 X22.675 Y102.548 E4.27896
G1 X22.675 Y102.04 E4.29411
G1 X20.325 Y104.391 E4.39332
G1 X20.325 Y103.883 E4.40848
G1 X22.675 Y101.533 E4.50769
G1 X22.675 Y101.025 E4.52284
G1 X20.325 Y103.375 E4.62206
G1 X20.325 Y102.867 E4.63721
G1 X22.675 Y100.517 E4.73642
